X: 1
T: Paddy Carey
M: 6/8
L: 1/8
R: jig
K: Gmaj
D2G GFG | B2G GFG | E2A A2B | cAG FED |
D2G GFG | B2G G3 | FED DEF | GAB A2G :|
G2B c2e | d2e dBG | G2B c2e | dBG A3 |
G2B c2e | d2e dBG | G3 BAG |1 FEF G3 :|2 FEF G2B ||
c2A ABA | B2G GAG | F2G A2B | c2A FED |
c2A ABA | B2G G3 | FED DEF | GAB A2G :|
